X: 32479
T: Plains Of Boyle, The
R: hornpipe
M: 4/4
K: Dmajor
|:AFDE FEDF|(3ABA GB AFD(f|f)edf edce|dcAB =cAGB|
AFDE FEDF|(3ABA GB AFDf|gedc ABAG|F2D2 D2 FG:|
|:afdf g2 fe|dfed BAFA|(3ABA FA BAFA|(3ABA FA defg|
afdf g2 fe|dfed BAFA|A2 AF GBAG|(3FGA EA D2 fg|
afdf g2 fe|dfed BAFA|(3ABA fA gAfA|(3ABA fA defg|
afdf g2 fe|dfed BAFA|A2 AF GBAG|(3FGA EA D2 FG||

